X: 1185
T: Roxburgh Castle
B: ralph
B: to learn
M:4/4
Q: 1/4=100
K:Gmajor
V:1 
|:DF|"G"GFGB dBGB|"C"cBce "G"dBGB|"C"cdec BcdB|"Am"c2 A2 "D7"AcBA|
 "G"GFGB dBGB|"C"cBce "G"dBGB|dgfe "D7"dcBA|"G"B2 G2 G2:|
 |:Bd|"G"gdBd edBd|gdBd edBd|"C"cdec "G"BcdB|"Am"c2 A2 "D7"AcBA|
 "G"GFGB dBGB|"C"cBce "G"dBGB|dgfe "D7"dcBA|"G"B2 G2 G2:|
% abcbook-tune_id 63453faa04089d30dd03f72c


% abcbook-boost 0
% abcbook-tablature 
% abcbook-transpose 
% abcbook-lastupdated 1666000275938
% abcbook-soundfonts 
% abcbook-repeats 3


